apps/indesign-cc/icon.svg

<svg role="img" focusable="false" aria-hidden="true" xmlns="http://www.w3.org/2000/svg" viewBox="0 0 14 14"><path d="M 1,1 1,13 13,13 13,1 1,1 Z m 4.3125,8.5915 -0.97425,0 0,-5.33875 0.97425,0 0,5.33875 z m 3.4775,0 -0.0395,-0.6095 -0.0155,0 C 8.505,9.4095 8.03775,9.679 7.47525,9.679 6.5565,9.679 5.82775,8.89475 5.82775,7.70625 5.81975,6.41525 6.628,5.64675 7.555,5.64675 c 0.53075,0 0.91075,0.22175 1.085,0.507 l 0.016,0 0,-2.18625 0.974,0 0,4.539 c 0,0.39625 0.016,0.824 0.03175,1.08525 l -0.87175,0 z M 7.792,6.3995 c -0.626,0 -0.97425,0.55425 -0.97425,1.2755 0,0.70475 0.34825,1.22 0.9665,1.22 C 8.18075,8.895 8.529,8.6255 8.624,8.20575 8.648,8.1185 8.65575,8.0235 8.65575,7.92025 l 0,-0.578 c 0,-0.0795 -0.00825,-0.1745 -0.024,-0.254 C 8.5445,6.70825 8.23575,6.3995 7.792,6.3995 Z" fill="#DB398D"/></svg>

<svg xmlns="http://www.w3.org/2000/svg" aria-hidden="true" viewBox="0 0 14 14">
  <path fill="#DB398D" d="M1 1v12h12V1H1zm4.3125 8.5915h-.9742V4.2527h.9742v5.3388zm3.4775 0l-.0395-.6095H8.735c-.23.4275-.6972.697-1.2597.697-.9188 0-1.6475-.7843-1.6475-1.9728-.008-1.291.8002-2.0595 1.7272-2.0595.5308 0 .9107.2218 1.085.507h.016V3.9675h.974v4.539c0 .3962.016.824.0318 1.0852H8.79zm-.998-3.192c-.626 0-.9742.5543-.9742 1.2755 0 .7047.3482 1.22.9665 1.22.3964 0 .7447-.2695.8397-.6892.024-.0873.0317-.1823.0317-.2855v-.578c0-.0795-.0082-.1745-.024-.254-.0872-.38-.396-.6888-.8397-.6888z"/>
</svg>
